X:85
T: O'Mealy's
C: R.L. O'Mealy
S: Treoir
Z: B.Black
M: 4/4
L: 1/8
R: hornpipe
K: G
(3DEF | GFGA BGBd | gfga bgdB | cBAG FAdc |\
(3BAG (3AGF GFED |
GFGA BGBd | gfga bgdB | cBAG FAdc | (3BAG (3AGF G2 :|
(3Bcd | gd (3Bcd gd (3Bcd | gd (3Bcd g3 z |\
agfd Adfd | Adfd Ad f2 |
(3Bcd gd (3Bcd gd |(3Bcd gd (3Bcd g2 |agfd AFDc |\
(3BAG (3AGF G2 :|

